packages/asc-assets/svg/FacebookPadded.svg

<?xml version="1.0" encoding="UTF-8"?>
<svg viewBox="0 0 1024 1024" version="1.1" xmlns="http://www.w3.org/2000/svg" xmlns:xlink="http://www.w3.org/1999/xlink">
    <path d="M667.708661,541.102362 L683.582677,422.047244 L564.527559,422.047244 L564.527559,345.322835 C564.527559,310.929134 575.110236,287.11811 622.732283,287.11811 L686.228346,287.11811 L686.228346,181.291339 C675.645669,178.645669 638.606299,176 593.629921,176 C501.031496,176 440.181102,231.559055 440.181102,334.740157 L440.181102,422.047244 L337,422.047244 L337,541.102362 L440.181102,541.102362 L440.181102,848 L564.527559,848 L564.527559,541.102362 L667.708661,541.102362 L667.708661,541.102362 Z" id="path-1"></path>
</svg>

<svg viewBox="0 0 1024 1024"><path d="M667.7 541.1l15.88-119.05H564.53v-76.73c0-34.4 10.58-58.2 58.2-58.2h63.5V181.29c-10.58-2.64-47.62-5.29-92.6-5.29-92.6 0-153.45 55.56-153.45 158.74v87.3H337V541.1h103.18V848h124.35V541.1H667.7z"></path></svg>
